public/assets/icons/heart.svg

<svg width="18" height="19" viewBox="0 0 18 19" fill="none" xmlns="http://www.w3.org/2000/svg">
<path fill-rule="evenodd" clip-rule="evenodd" d="M1.23534 1.89734C2.0878 0.799121 3.36921 0.12085 5.03306 0.12085C6.75699 0.12085 8.04296 1.0383 9 2.10783C9.95704 1.0383 11.243 0.12085 12.9669 0.12085C14.6308 0.12085 15.9122 0.799121 16.7647 1.89734C17.6048 2.97974 18 4.43082 18 5.95624C18 6.85329 17.6172 7.81386 17.0707 8.72917C16.5182 9.65456 15.102 11.2858 14.2913 12.139C13.5057 12.9657 12.7819 13.8247 11.5844 15.183C10.9869 15.8607 10.4388 16.4863 10.0402 16.9426C9.84085 17.1707 9.67889 17.3564 9.56679 17.485L9.39328 17.6844L9 17.3424L8.61985 17.699L7.92509 16.9556C7.49824 16.499 6.9126 15.8729 6.2774 15.1946C5.00645 13.8374 4.20307 12.9931 3.41123 12.1597C1.79219 10.4558 0 7.82741 0 5.95624C0 4.43082 0.395168 2.97974 1.23534 1.89734ZM9 17.3424L8.61985 17.699L9.01388 18.1208L9.39257 17.6852L9 17.3424ZM8.98648 16.5645C9.06617 16.4732 9.15681 16.3693 9.25683 16.2549C9.6562 15.7978 10.2053 15.171 10.8041 14.4919C11.9991 13.1365 12.7359 12.2625 13.5372 11.4192C14.3133 10.6025 15.676 9.03267 16.1772 8.19321C16.6844 7.34367 16.9587 6.57734 16.9587 5.95624C16.9587 4.59718 16.6051 3.3915 15.9428 2.53825C15.2928 1.70083 14.318 1.16458 12.9669 1.16458C11.4589 1.16458 10.3236 2.0762 9.4094 3.24236L9 3.76462L8.59059 3.24236C7.67644 2.0762 6.54106 1.16458 5.03306 1.16458C3.68203 1.16458 2.70724 1.70083 2.05722 2.53825C1.39491 3.3915 1.04132 4.59718 1.04132 5.95624C1.04132 7.42501 2.61078 9.8039 4.16529 11.4399C4.96022 12.2765 5.76627 13.1237 7.03665 14.4803C7.67211 15.1588 8.25795 15.7852 8.68493 16.2419L8.98648 16.5645Z" fill="black"/>
</svg>

<svg xmlns="http://www.w3.org/2000/svg" width="18" height="19" fill="none">
  <path fill="#000" fill-rule="evenodd" d="M1.235 1.897C2.088.8 3.37.121 5.033.121c1.724 0 3.01.917 3.967 1.987C9.957 1.038 11.243.12 12.967.12c1.664 0 2.945.678 3.798 1.776C17.605 2.98 18 4.431 18 5.957c0 .896-.383 1.857-.93 2.772-.552.926-1.968 2.557-2.779 3.41-.785.827-1.51 1.686-2.707 3.044a523.318 523.318 0 0 0-2.017 2.302l-.174.2L9 17.341l-.38.357-.695-.743a2875.32 2875.32 0 0 0-1.648-1.761c-1.27-1.358-2.074-2.202-2.866-3.035C1.792 10.456 0 7.827 0 5.956 0 4.431.395 2.98 1.235 1.897ZM9 17.342l-.38.357.394.422.379-.436L9 17.342Zm-.014-.777.27-.31c.4-.457.95-1.084 1.548-1.763 1.195-1.356 1.932-2.23 2.733-3.073.776-.817 2.139-2.386 2.64-3.226.507-.85.782-1.616.782-2.237 0-1.359-.354-2.565-1.016-3.418-.65-.837-1.625-1.373-2.976-1.373-1.508 0-2.643.911-3.558 2.077L9 3.765l-.41-.523c-.914-1.166-2.049-2.077-3.557-2.077-1.351 0-2.326.536-2.976 1.373-.662.854-1.016 2.06-1.016 3.418 0 1.469 1.57 3.848 3.124 5.484.795.837 1.601 1.684 2.872 3.04l1.648 1.762.301.322Z" clip-rule="evenodd"/>
</svg>
